X:1
T:Adoramus Te
T:Palestrina arr. satb BMarble
T:Adoramus Te
C:Palestrina
C:arr. satb BMarble
%%score [ 1 2 3 4 ]
L:1/8
Q:1/2=80
M:4/2
K:Eb
V:1 treble nm="Soprano" snm="S."
V:2 treble nm="Alto" snm="A."
V:3 treble-8 transpose=-12 nm="Tenor" snm="T."
V:4 bass nm="Baritone" snm="Bar."
V:1
 G16 | G8 A8 | G8 G4 G4- | G4 F2 E2 F8 | G8 z4 G4 | G6 G2 G4 G4 | A4 (G8 F4) | G8 z8 | z8 z4 C4 | %9
w: Ad-|o- ra-|mus te, Chri-||ste, et|be- ne- di- ci-|mus ti- *|bi,|et|
 G12 G4 | B4 =A4 G4 B4- | B2 =A2 G8 ^F4 | G4 G4 G4 G4 | B6 =A2 G8 | F8 B8- | B8 G8 | G4 F2 E2 F8 | %17
w: be- ne-|di- ci- mus ti-||bi, qui- a per|san- * *|ctam cru-|* cem|tu- * * *|
 E4 G8 F4 | E4 D4 E8 | D8 z4 G4- | G4 F4 E4 D4 | C4 !courtesy!=B,4 C8 | D4 B8 B4 | G4 G6 FE F4 | %24
w: am re- de-|mi- sti mun-|dum, re-|* de- mi- sti|mun- * *|dum, re- de-|mi- sti _ _ _|
 G16 | =E8 z4 G4 | G4 G4 B8- | B8 G8 | F4 D4 E2 F2 G2 =A2 | B16 | G8 z4 B4- | B4 _A4 G4 F4 | G16 | %33
w: mun-|dum, qui-|a per san-|* ctam|cru- cem tu- * * *||am re-|* de- mi- sti|mun-|
 G16 |] %34
w: dum.|
V:2
 D16 | =E8 F8 | B,8 _E4 E4- | E2 D2 C2 B,2 C8 | D8 z8 | z16 | z16 | z4 D4 G6 G2 | G4 F4 G8 | %9
w: Ad-|o- ra-|mus te, Chri-||ste,|||et be- ne-|di- ci- mus|
 E8 D8 | D6 CD E2 D2 D4- | D2 C2 C4 D8- | D8 z4 G4 | G4 G4 B8- | B8 G8 | F4 D4 E2 F2 G2 =A2 | B16 | %17
w: ti- bi,|ti- * * * * *|* * * bi,|_ qui-|a per san-|* ctam|cru- cem tu- * * *||
 B16 | z16 | G8 F4 E4- | E4 C4 G6 FE | F4 G8 F4 | G4 G8 F4 | E4 D4 C6 D2 | E4 D2 C2 D8 | %25
w: am||re- de- mi-|* sti mun- * *||dum, re- de-|mi- sti mun- *||
 C4 G4 G4 G4 | B6 =A2 G2 F2 G4 | F8 B8- | B8 G8 | G4 F2 E2 F8 | E4 B6 =A2 G4- | G4 F2 E2 D4 C4 | %32
w: dum, qui- a per|san- * * * *|ctam cru-|* cem|tu- * * *|am re- de- mi-|* * * * sti|
 D16 | =E16 |] %34
w: mun-|dum.|
V:3
 =B16 | c8 c8 | (e6 d2) c4 B4 | c16 | =B8 z4 d4 | e6 e2 e4 d4 | e8 c8 | d4 B4 e6 e2 | e4 d4 e8 | %9
w: Ad-|o- ra-|mus * te, Chri-||ste, et|be- ne- di- ci-|mus ti-|bi, et be- ne-|di- ci- mus|
 c8 B4 B4 | G4 =A4 B4 B4 | G8 =A8 | G2 =A2 B2 c2 d2 cd e4- | e4 d4 z4 d4 | d4 d4 e4 e4 | %15
w: ti- bi, et|be- ne- di- ci-|mus ti-||* bi, qui-|a per san- ctam|
 d4 f8 e4- | e4 d2 c2 d8 | e4 e8 d4 | c4 =B4 c8 | G8 z8 | z4 c8 B4 | A4 G4 A8 | G4 e8 d4 | %23
w: cru- cem tu-||am re- de-|mi- sti mun-|dum,|re- de-|mi- sti num-|dum, re- de-|
 c4 B4 e2 d2 c4- | c4 =B2 =A2 B8 | c16 | z8 z4 d4 | d4 d4 e4 e4 | d4 f8 e4- | e4 d2 c2 d8 | %30
w: mi- sti mun- * *||dum,|qui-|a per san- ctam|cru- cem tu-||
 e8 z4 e4- | e2 d2 c4 =B4 c4- | c4 =B2 =A2 B8 | c16 |] %34
w: am re-|* de mi- sti mun-||dum.|
V:4
 G,16 | C,8 F,8 | E,8 E,8 | A,16 | G,8 z4 G,4 | C6 C2 C4 =B,4 | C8 A,8 | G,8 z8 | z16 | %9
w: Ad-|o- ra-|mus te,|Chri-|ste, et|be- ne- di- ci-|mus ti-|bi,||
 C,8 G,6 G,2 | G,4 ^F,4 G,8 | E,8 D,8 | G,16 | z4 G,4 G,4 G,4 | B,8 E,8 | B,8 C8 | B,16 | E,8 z8 | %18
w: et be- ne-|di- ci- mus|ti- *|bi,|qui- a per|sac- ctam|cru- cem|tu-|am|
 z8 z4 C4- | C4 _B,4 A,4 G,4 | A,8 G,8 | z16 | z4 E,8 B,4 | C4 G,4 A,8 | G,16 | C,16 | %26
w: re-|* de- mi- sti|mun- dum,||re- de-|mi- sti mun-||dum,|
 z4 G,4 G,4 G,4 | B,8 E,8 | B,8 C8 | B,16 | E,8 E,8- | E,4 F,4 G,4 A,4 | G,16 | C,16 |] %34
w: qui- a per|san- ctam|cru- cem|tu-|am, re-|* de- mi- sti|mun-|dum.|

